X:1
T:The Foxhunter, etc.  "Blind Billy, The Piper's Maggot, Welcome the Pip
M:9/8
L:1/8
Q:80
C:The City of Montreal Pipe Band, 1962
S:Jig
K:HP
| {g}c{d}Ac{g}c{d}Ac{Gdc}d2B|
{g}c{d}Ac{g}c{d}Ac{gBd}B2{G}A|
{g}c{d}Ac{g}c{d}Ac{Gdc}d2f|  !
{gef}ec{d}A{g}ABc{gBd}B2{G}A:|
{g}cac{g}cac{Gdc}d2B|
{g}cac{g}cac{gBd}B2{G}A|  !
{g}cac{g}cac{Gdc}d2f|
{gef}ec{d}A{g}ABc{gBd}B2{G}A:|
M:9/8 |  !
{g}cec{g}A2f{g}ecA|
{g}cec{g}A2g{afg}f2e|
{g}cec{g}A2f{g}ecA|  !
{g}f{d}B{d}B{g}B{d}ce{gfg}f2e:|
a3{g}a2f{g}ec{d}A|
a3{g}a2e{gfg}f2{g}e|  !
a3{g}a2f{g}ec{d}A|
{g}f{d}B{d}B{g}B{d}ce{gfg}f2e:|
M:9/8 |  !
{gcd}c2{e}A{g}A{d}c{e}A{gef}ec{G}A|
{g}e2{GdG}eac{d}A{gef}e2d|
{gcd}c2{e}A{g}A{d}c{e}A{gef}ec{G}A|  !
{g}BG{d}B{a}gdB{Gdc}d2e:|
{gcd}c2a{g}aecaec|
{gcd}c2a{g}aec{gef}e2d|  !
{gcd}c2a{g}aecaec|
{g}BG{d}B{a}gdB{Gdc}d2e:|
M:9/8 {g}fed{g}ded{g}d{e}Ad|  !
{g}fed{g}ded{g}efg|
{a}fed{g}ded{g}d{e}Ad|
{a}gec{g}cec{g}efg:|  !
a2{GdG}afd{A}dfd{A}d|
a2{GdG}afd{A}d{g}efg|
a2{GdG}afd{A}dfd{A}d|  !
{a}gec{g}cec{g}efg:|
M:9/8 |
{g}A2d{gde}dcd{g}A3|  !
{g}Bcd{g}efg{a}fed|
{g}A2d{gde}dcd{g}B{d}GB|
{g}A2f{g}edc{Gdc}d3:|  !
afd{gde}dcdafd|
{g}Bcd{g}efd{gcd}cB{G}A|
afd{gde}dcdafd|  !
{g}Bcd{gef}edc{Gdc}d3:|

